Catalina-light/actions/16/draw-halfcircle4.svg

<svg xmlns="http://www.w3.org/2000/svg" width="16" height="16" viewBox="0 0 16 16">
 <defs>
  <style id="current-color-scheme" type="text/css">
   .ColorScheme-Text { color:#5c616c; } .ColorScheme-Highlight { color:#5294e2; }
  </style>
 </defs>
 <path style="fill:currentColor" class="ColorScheme-Text" d="M 1.0097656 3.9980469 C 1.0097656 3.9980469 0.98816563 5.061725 1.0097656 5.140625 C 1.0097656 8.927725 4.1426594 11.998047 8.0058594 11.998047 C 11.869059 11.998047 15 8.927725 15 5.140625 L 15 3.9980469 L 13.833984 3.9980469 L 13.716797 3.9980469 L 2.2988281 3.9980469 L 2.1757812 3.9980469 L 1.0097656 3.9980469 z"/>
</svg>

<svg width="16" height="16" viewBox="0 0 16 16" xmlns="http://www.w3.org/2000/svg">
<defs>
<style id="current-color-scheme" type="text/css">.ColorScheme-Text { color:#5c616c; } .ColorScheme-Highlight { color:#5294e2; }</style>
</defs>
<path class="ColorScheme-Text" d="m1.0098 3.998s-0.0216 1.0637 0 1.1426c0 3.7871 3.1329 6.8574 6.9961 6.8574 3.8632 0 6.9941-3.0703 6.9941-6.8574v-1.1426h-1.166-0.11719-11.418-0.12305-1.166z" fill="currentColor"/>
</svg>
